X:5850
T:Gan Ainm
R:Slip Jig
S:
H:
N:
D:Irish Dancing Tape (P. Acc)
Z:Adrian Scahill
M:9/8
L:1/8
K:D
FGF EFE DFA|G3 GBc dAG|FGF EFE DFA|GEC A,B,C D3:||\
G3 GBc dAG|F^EF FBc dAF|E^DE EAB cBA|1 F^EF FAB =cAF:|2 GAG FGE DE^E||\
